teeny/outline/azure.svg

<svg viewBox="0 0 15 15" xmlns="http://www.w3.org/2000/svg"><g stroke="#000" fill="none" stroke-linejoin="round"><path d="M3.5 4.5l-3 7h3l4-11 -4 4Z"/><path d="M14.5 13.5l-5-11 -2 5 3 4 -6 2h10Z"/></g></svg>

<svg width="15" height="15" viewBox="0 0 15 15" fill="none" xmlns="http://www.w3.org/2000/svg">
<path d="M3.5 4.5L0.5 11.5H3.5L7.5 0.5L3.5 4.5Z" stroke="black" stroke-linejoin="round"/>
<path d="M14.5 13.5L9.5 2.5L7.5 7.5L10.5 11.5L4.5 13.5H14.5Z" stroke="black" stroke-linejoin="round"/>
</svg>
